images/arrow-left.svg

<svg width="14" height="15" viewBox="0 0 14 15" fill="none" xmlns="http://www.w3.org/2000/svg">
<path d="M0.223804 6.71339L5.27969 1.45514C5.42401 1.30504 5.61636 1.22266 5.82147 1.22266C6.0268 1.22266 6.21904 1.30516 6.36337 1.45514L6.8224 1.93266C6.96661 2.08252 7.04606 2.28269 7.04606 2.49611C7.04606 2.70942 6.96661 2.91634 6.8224 3.0662L3.87287 6.14046L13.2437 6.14046C13.6662 6.14046 14 6.48445 14 6.92397L14 7.59905C14 8.03857 13.6662 8.41724 13.2437 8.41724L3.83941 8.41725L6.82229 11.5087C6.9665 11.6588 7.04594 11.8535 7.04594 12.0669C7.04594 12.2801 6.9665 12.4777 6.82229 12.6277L6.36325 13.1036C6.21893 13.2537 6.02669 13.3355 5.82136 13.3355C5.61625 13.3355 5.4239 13.2527 5.27957 13.1026L0.223691 7.84444C0.0790255 7.69387 -0.000534244 7.49287 3.48374e-05 7.27921C-0.000420461 7.06484 0.0790254 6.86372 0.223804 6.71339Z" fill="#383229"/>
</svg>

<svg width="14" height="15" fill="none" xmlns="http://www.w3.org/2000/svg"><path d="M.224 6.713L5.28 1.455a.746.746 0 011.083 0l.46.478c.144.15.223.35.223.563 0 .213-.08.42-.224.57L3.872 6.14h9.372c.422 0 .756.344.756.784v.675c0 .44-.334.818-.756.818H3.839l2.983 3.092c.144.15.224.345.224.558 0 .213-.08.41-.224.56l-.459.477a.745.745 0 01-1.083-.001L.224 7.844A.808.808 0 010 7.28c0-.214.079-.415.224-.566z" fill="#383229"/></svg>
